src/icons/file-video.svg

<svg width="16" height="16" viewBox="0 0 16 16" fill="none" xmlns="http://www.w3.org/2000/svg">
<path fill-rule="evenodd" clip-rule="evenodd" d="M2 7C2 5.59987 2 4.8998 2.27248 4.36502C2.51217 3.89462 2.89462 3.51217 3.36502 3.27248C3.75352 3.07454 4.22924 3.02039 4.99721 3.00558L3.5 6H5L6.5 3H8L6.5 6H8L9.5 3H10C10.3806 3 10.7094 3 10.9973 3.00547L9.5 6H11L12.4113 3.17747C12.4896 3.20474 12.5638 3.2362 12.635 3.27248C13.1054 3.51217 13.4878 3.89462 13.7275 4.36502C14 4.8998 14 5.59987 14 7V10C14 11.4001 14 12.1002 13.7275 12.635C13.4878 13.1054 13.1054 13.4878 12.635 13.7275C12.1002 14 11.4001 14 10 14H6C4.59987 14 3.8998 14 3.36502 13.7275C2.89462 13.4878 2.51217 13.1054 2.27248 12.635C2 12.1002 2 11.4001 2 10V7ZM6 11.1404C6 11.5877 6 11.8113 6.09404 11.9421C6.17609 12.0562 6.30239 12.1306 6.442 12.1469C6.602 12.1656 6.79751 12.0569 7.18851 11.8397L9.24121 10.6993C9.65218 10.471 9.85767 10.3569 9.92586 10.2064C9.9853 10.0752 9.9853 9.92479 9.92586 9.79362C9.85767 9.64315 9.65218 9.52899 9.24121 9.30067L7.18851 8.16029C6.79751 7.94306 6.602 7.83444 6.442 7.85313C6.30239 7.86944 6.17609 7.94375 6.09404 8.05787C6 8.18866 6 8.41231 6 8.85961V11.1404Z" fill="#A67CF8"/>
</svg>

<svg xmlns="http://www.w3.org/2000/svg" width="16" height="16" fill="none"><path fill="#A67CF8" fill-rule="evenodd" d="M2 7c0-1.4 0-2.1.272-2.635a2.5 2.5 0 0 1 1.093-1.093c.389-.197.864-.252 1.632-.266L3.5 6H5l1.5-3H8L6.5 6H8l1.5-3h.5q.568-.001.997.005L9.5 6H11l1.411-2.823q.118.042.224.095a2.5 2.5 0 0 1 1.092 1.093C14 4.9 14 5.6 14 7v3c0 1.4 0 2.1-.273 2.635a2.5 2.5 0 0 1-1.092 1.092C12.1 14 11.4 14 10 14H6c-1.4 0-2.1 0-2.635-.273a2.5 2.5 0 0 1-1.093-1.092C2 12.1 2 11.4 2 10zm4 4.14c0 .448 0 .671.094.802a.5.5 0 0 0 .348.205c.16.019.356-.09.747-.307L9.24 10.7c.411-.229.617-.343.685-.494a.5.5 0 0 0 0-.412c-.068-.15-.274-.265-.685-.493L7.19 8.16c-.391-.218-.587-.327-.747-.308a.5.5 0 0 0-.348.205C6 8.188 6 8.412 6 8.86z" clip-rule="evenodd"/></svg>
